src/icons/arrow-right-c.svg

<?xml version="1.0" encoding="UTF-8"?>
<svg width="512px" height="512px" viewBox="0 0 512 512" version="1.1" xmlns="http://www.w3.org/2000/svg" xmlns:xlink="http://www.w3.org/1999/xlink">
    <!-- Generator: Sketch 62 (91390) - https://sketch.com -->
    <title>arrow-right-c</title>
    <desc>Created with Sketch.</desc>
    <g id="arrow-right-c" stroke="none" stroke-width="1" fill="none" fill-rule="evenodd">
        <path d="M316.6,133.406271 L407.8,228.906271 C413.3,234.206271 416,241.406271 416,249.306271 C416,257.206271 413.3,264.306271 407.8,269.706271 L316.6,365.506271 C305.8,376.906271 288.1,376.906271 277.3,365.506271 C266.5,354.106271 266.5,335.806271 277.3,324.406271 L321.1,278.606271 L123.9,278.606271 C108.4,278.606271 96,265.606271 96,249.506271 C96,233.406271 108.5,220.406271 123.8,220.406271 L321.1,220.406271 L277.3,174.606271 C266.5,163.206271 266.5,144.906271 277.3,133.506271 C288.2,122.106271 305.7,122.106271 316.6,133.406271 Z" id="Path" fill="#000000" fill-rule="nonzero"></path>
    </g>
</svg>

<svg xmlns="http://www.w3.org/2000/svg" width="512" height="512" viewBox="0 0 512 512">
    <path d="M316.6 133.406l91.2 95.5c5.5 5.3 8.2 12.5 8.2 20.4 0 7.9-2.7 15-8.2 20.4l-91.2 95.8c-10.8 11.4-28.5 11.4-39.3 0-10.8-11.4-10.8-29.7 0-41.1l43.8-45.8H123.9c-15.5 0-27.9-13-27.9-29.1s12.5-29.1 27.8-29.1h197.3l-43.8-45.8c-10.8-11.4-10.8-29.7 0-41.1 10.9-11.4 28.4-11.4 39.3-.1z"/>
</svg>
